frontend/public/svg/interface/zoom-out-1.svg

<svg width="163" height="161" viewBox="0 0 163 161" fill="none" xmlns="http://www.w3.org/2000/svg">
<g clip-path="url(#clip0)">
<path d="M12.3119 160.489C14.76 160.454 17.2087 160.444 19.6582 160.434C25.3146 160.412 31.1634 160.388 36.906 160.045C41.6588 159.671 46.3882 159.042 51.0739 158.162C52.2837 157.956 53.4923 157.751 54.7027 157.555C55.4253 157.438 55.9612 156.914 56.6396 156.252C56.9636 155.934 57.333 155.574 57.7717 155.213C57.8689 155.132 57.9413 155.026 57.9807 154.906C58.02 154.786 58.0248 154.658 57.9941 154.536C57.9635 154.413 57.8987 154.302 57.8074 154.215C57.7162 154.128 57.6022 154.069 57.4787 154.044C56.8761 153.923 56.3844 153.811 55.9625 153.714C55.3295 153.546 54.6834 153.433 54.0313 153.376C49.1765 153.113 44.3218 152.857 39.467 152.606C32.6055 152.247 25.7442 151.879 18.8832 151.502C18.643 151.491 18.4027 151.492 18.1627 151.506C17.2691 151.539 16.6443 151.561 16.2102 150.639C17.5951 149.308 18.9859 147.966 20.3826 146.614C23.6965 143.411 27.1218 140.1 30.5601 136.876C43.6024 124.638 56.1625 111.869 67.8888 98.9219C69.3085 97.4456 70.5125 95.7752 71.4651 93.9614C71.7158 93.5069 71.8649 93.0038 71.9005 92.4858C71.9368 91.9677 71.859 91.4484 71.6737 90.9641C71.4074 90.4304 71.0296 89.9611 70.565 89.5884C70.101 89.2151 69.5612 88.9477 68.9839 88.8035C68.8698 88.7659 68.7467 88.76 68.6294 88.788C65.0357 89.6072 62.5034 92.1138 60.0546 94.5379C59.6535 94.9352 59.2529 95.3312 58.8492 95.7181C55.3332 99.0939 51.7349 102.5 48.2551 105.796C36.3799 117.043 24.1002 128.675 12.8665 140.991C12.7492 141.121 12.6359 141.26 12.5199 141.406C12.0527 141.991 11.7455 142.38 11.01 142.222C10.9504 140.755 10.9167 139.254 10.8843 137.798C10.8716 133.971 10.6372 130.147 10.1825 126.348C10.025 125.221 9.90131 124.052 9.78143 122.921C9.30709 118.453 8.81656 113.833 6.17469 109.743C6.08381 109.602 5.94363 109.501 5.78187 109.459C5.62012 109.417 5.44847 109.438 5.30109 109.517C5.02375 109.665 4.76779 109.776 4.55201 109.87C4.03361 110.095 3.58389 110.29 3.4653 110.784C0.882377 121.536 1.01662 132.597 1.14557 143.297C1.16436 144.852 1.18377 146.406 1.19414 147.961C1.21747 151.247 1.38336 154.431 3.13814 157.252C3.16611 157.299 3.20032 157.343 3.23986 157.382C6.05154 160.108 9.48652 160.498 11.9502 160.498C12.0707 160.492 12.1913 160.491 12.3119 160.489Z" fill="black"/>
<path d="M142.52 14.6396C133.718 23.1622 124.911 31.6781 116.097 40.1874C109.432 46.6274 102.768 53.0685 96.1059 59.5111L96.0411 59.5722C94.0122 61.536 91.914 63.566 90.0283 65.7395C89.5391 66.4289 89.2307 67.23 89.1309 68.0695C89.0324 68.5239 88.9313 68.9907 88.779 69.4977C88.7505 69.5931 88.7434 69.6937 88.7589 69.7924C88.7745 69.8911 88.8114 69.9846 88.8678 70.067C88.9241 70.1488 88.9987 70.217 89.0848 70.267C89.171 70.3163 89.2669 70.3468 89.3667 70.354C89.8851 70.3936 90.3919 70.4793 90.8785 70.5624C91.4118 70.6714 91.9535 70.7363 92.4985 70.7571C92.9204 70.7714 93.3383 70.6753 93.7122 70.478C95.2227 69.547 96.6114 68.4304 97.8465 67.1547L98.4342 66.5977C108.467 57.1723 118.494 47.7426 128.517 38.3085C135.781 31.4751 143.045 24.6426 150.31 17.8109C150.421 17.707 150.529 17.5954 150.64 17.4863C151.195 16.9176 151.559 16.5469 152.355 16.7721C152.378 18.1679 152.393 19.5774 152.409 20.9958C152.447 24.5839 152.486 28.2953 152.663 31.9743C152.698 32.7001 152.728 33.4265 152.759 34.1536C152.958 38.9174 153.165 43.8441 154.655 48.7066C154.697 48.8493 154.786 48.9736 154.908 49.0591C155.03 49.1446 155.177 49.1862 155.325 49.1773C158.197 49.0319 158.687 47.2992 159.011 46.1527L159.085 45.897C162.201 35.3489 163.224 23.6172 162.209 10.0328C161.698 3.18121 158.58 0.209917 151.787 0.0963076C144.671 -0.119858 137.549 0.0600798 130.454 0.63519C126.002 1.17109 121.592 2.01703 117.258 3.16698C115.993 3.47146 114.73 3.77533 113.465 4.06422C112.723 4.33497 112.086 4.83228 111.642 5.48592C111.383 5.7839 111.114 6.09296 110.81 6.38315C110.734 6.45539 110.676 6.54453 110.641 6.64327C110.606 6.74195 110.595 6.84757 110.608 6.95151C110.621 7.05545 110.659 7.15471 110.718 7.24137C110.777 7.32811 110.854 7.39971 110.946 7.45048C113.782 9.01958 116.381 9.17987 118.895 9.33308C119.302 9.35839 119.708 9.383 120.112 9.41481C121.316 9.507 122.519 9.61613 123.722 9.72389C125.581 9.89203 127.503 10.066 129.404 10.1783C131.432 10.2945 133.493 10.3341 135.486 10.3731C136.343 10.3893 137.2 10.4055 138.057 10.4283C139.12 10.4347 140.182 10.3855 141.24 10.2808C143.014 10.0716 144.807 10.0692 146.582 10.2737C146.224 10.6671 145.886 11.0444 145.56 11.4067C144.468 12.6168 143.523 13.6671 142.52 14.6396Z" fill="black"/>
</g>
<defs>
<clipPath id="clip0">
<rect width="162" height="161" fill="white" transform="translate(0.777344)"/>
</clipPath>
</defs>
</svg>

<svg xmlns="http://www.w3.org/2000/svg" width="163" height="161" fill="none" viewBox="0 0 163 161"><g fill="#000" clip-path="url(#a)"><path d="M12.312 160.489c2.448-.035 4.897-.045 7.346-.055 5.657-.022 11.505-.046 17.248-.389a134 134 0 0 0 14.168-1.883q1.814-.311 3.629-.607c.722-.117 1.258-.641 1.937-1.303.324-.318.693-.678 1.132-1.039a.67.67 0 0 0 .222-.677.67.67 0 0 0-.515-.492 53 53 0 0 1-1.517-.33 11.4 11.4 0 0 0-1.93-.338q-7.283-.394-14.565-.77-10.292-.538-20.584-1.104-.36-.017-.72.004c-.894.033-1.519.055-1.953-.867q2.078-1.997 4.173-4.025c3.314-3.203 6.739-6.514 10.177-9.738 13.042-12.238 25.603-25.007 37.329-37.954a21.7 21.7 0 0 0 3.576-4.96 3.56 3.56 0 0 0 .209-2.998 4.12 4.12 0 0 0-2.69-2.16.65.65 0 0 0-.355-.016c-3.593.82-6.126 3.326-8.574 5.75q-.6.598-1.206 1.18c-3.516 3.376-7.114 6.782-10.594 10.078-11.875 11.247-24.155 22.879-35.388 35.195a9 9 0 0 0-.347.415c-.467.585-.774.974-1.51.816-.06-1.467-.093-2.968-.126-4.424a99 99 0 0 0-.702-11.45c-.157-1.127-.28-2.296-.4-3.427-.475-4.468-.965-9.088-3.607-13.178a.666.666 0 0 0-.874-.226c-.277.148-.533.259-.749.353-.518.225-.968.42-1.087.914-2.583 10.752-2.448 21.813-2.32 32.513q.032 2.332.05 4.664c.022 3.286.188 6.47 1.943 9.291a.7.7 0 0 0 .102.13c2.812 2.726 6.247 3.116 8.71 3.116q.18-.007.362-.009M142.52 14.64a25152 25152 0 0 1-26.423 25.547q-9.998 9.66-19.991 19.324l-.065.061c-2.029 1.964-4.127 3.994-6.013 6.168a5.06 5.06 0 0 0-.897 2.33c-.099.454-.2.92-.352 1.428a.667.667 0 0 0 .588.856c.518.04 1.025.125 1.511.208a10 10 0 0 0 1.62.195 2.43 2.43 0 0 0 1.214-.279 21.3 21.3 0 0 0 4.135-3.323l.587-.557q15.049-14.138 30.083-28.29l21.793-20.497c.111-.104.219-.216.33-.325.555-.568.919-.94 1.715-.714.023 1.396.038 2.805.054 4.224.038 3.588.077 7.3.254 10.978q.051 1.088.096 2.18c.199 4.763.406 9.69 1.896 14.553a.66.66 0 0 0 .67.47c2.872-.145 3.362-1.878 3.686-3.024l.074-.256c3.116-10.548 4.139-22.28 3.124-35.864C161.698 3.18 158.58.21 151.787.096a192 192 0 0 0-21.333.54 96 96 0 0 0-13.196 2.531c-1.265.304-2.528.608-3.793.897a3.76 3.76 0 0 0-1.823 1.422c-.259.298-.528.607-.832.897a.666.666 0 0 0 .136 1.067c2.836 1.57 5.435 1.73 7.949 1.883q.61.036 1.217.082c1.204.092 2.407.201 3.61.309 1.859.168 3.781.342 5.682.454 2.028.116 4.089.156 6.082.195q1.286.023 2.571.055a31 31 0 0 0 3.183-.147 23 23 0 0 1 5.342-.007c-.358.393-.696.77-1.022 1.133-1.092 1.21-2.037 2.26-3.04 3.233"/></g><defs><clipPath id="a"><path fill="#fff" d="M.777 0h162v161h-162z"/></clipPath></defs></svg>
